X:1
T: The Cup of Tea
P:Roche version
R:Reel
Q: 232
K:D
M:4/4
L:1/8
|:eA ((3AAA) g2 fg|eA Ac BG G2|eA ((3AAA) g2 fg|af ge dg fg|
eA ((3AAA) g2 fg|eA Ac BG G2|eA ((3AAA) g2 fg|af ge d2 cd|
ea ag ef gf|ea ag ed cd|ea ag ef gb|af ge dg fg|
ea ag ef gf|ea ag ed cd|ea ag ef gb|af ge d2 d2:|
